X: 19
T:Portuguese Laudie(),The. ST.19
M:2/4
L:1/8
Q:180
S:Annonymous Staffordshire MS, Early 19thC.
R:Country-dance
O:England
A:Staffordshire
N:Not very legible in MS, but not "Lady".CGP
Z:vmp.Tim Willets
K:G
d|gfed|d2zB|cBce|dBG d|!
b>a g/2f/2e/2d/2|d2zB|cBce|d2z:|!
|:d|cAFD|GBd d|^c/2d/2e/2d/2 =c/2B/2c/2A/2|G2zd|!
cAFD|GBd d|^c/2d/2e/2d/2 =c/2B/2c/2A/2|G2z:|]
